X: 11362
T: Earl Of Space, The
R: reel
M: 4/4
K: Dmajor
f3d AB d2-|defd edBd|f3d AB d2-|defd e3 d|
f3e d3B|A3B ABde|f2 af ef3|A2BA d3e:|
|:f2af e~f3|A2BA d~A3|e~A3 d3e|f3a f~e3|
f3e d3B|A3B ABde|f2 af ef3|A2BA d3e:|

